X: 9
T: Sixpenny Money
Z: Sean Perry
S: https://thesession.org/tunes/387#setting51202
R: jig
M: 6/8
L: 1/8
K: Dmaj
|:fAA fAA|BAG FGE|~D3 AFA|dfd efg|
fAA fAA|BAG FGE|~D3 AFA|dfd ede:|
|:~f3 ~g3|afd ede|~f3 ~g3|aba e2g|
~f3 ~g3|afd edB|Add dcd|dfd e2g:|

